production/images/icons/star.svg

<svg width="48" height="48" viewBox="0 0 48 48" fill="none" xmlns="http://www.w3.org/2000/svg">
<path d="M41.9058 18.0657C41.6688 17.3368 41.0222 16.8207 40.2603 16.7517L29.8682 15.8083L25.7612 6.19289C25.4579 5.48646 24.768 5.03052 24 5.03052C23.2321 5.03052 22.5418 5.48646 22.2405 6.19289L18.1335 15.8083L7.73973 16.7517C6.97782 16.822 6.33264 17.3381 6.09423 18.0657C5.8572 18.7947 6.0761 19.5942 6.65235 20.0996L14.508 26.9878L12.1917 37.1894C12.0223 37.9395 12.3134 38.7151 12.9358 39.165C13.2703 39.4081 13.6634 39.5295 14.0578 39.5295C14.3967 39.5295 14.7359 39.4394 15.0389 39.2581L24 33.9L32.9595 39.2581C33.6168 39.6509 34.4432 39.6149 35.0642 39.165C35.6866 38.7151 35.9778 37.9395 35.8083 37.1894L33.4921 26.9878L41.3477 20.0996C41.9237 19.5942 42.1428 18.7963 41.9058 18.0657Z" fill="#2E390E"/>
</svg>

<svg width="48" height="48" viewBox="0 0 48 48" fill="none" xmlns="http://www.w3.org/2000/svg"><path d="M41.906 18.066a1.911 1.911 0 00-1.646-1.314l-10.392-.944-4.107-9.615a1.914 1.914 0 00-3.52 0l-4.107 9.615-10.394.944A1.917 1.917 0 006.652 20.1l7.856 6.888-2.316 10.201a1.913 1.913 0 002.847 2.07L24 33.9l8.96 5.358a1.913 1.913 0 002.849-2.069l-2.317-10.201 7.856-6.888a1.916 1.916 0 00.558-2.034z" fill="#2E390E"/></svg>
